X:31
T:Quayside, The
C:Joe Buchanan's Scottish Tome - Page 024.1
I:024 1
Z:Carl Allison
R:Hornpipe
L:1/8
M:4/4
K:A
e2 | a2 (Aa) a2> e2 | cAce a2 (ce) | d2 (Bd) dcBA | G2 B2 B2 e2 |
a2 (Aa) a2> e2 | cAce a2 ce | d2 f2 efga | c2 A2 A2 :|
(ed) | cAce fedc | aAce fedc | cAce aAec | d2 B2 B2 (ed) |
cAce fedc | aAce fedc | d2 f2 efga | c2 A2 A2 (ed) |
cAce fedc | aAce fedc | cAce aAec | d2 B2 B2 e2 |
a2 aa (a2> e2) | cAce a2 (ce) | d2 f2 efga | c2 A2 A2 |]
